app/assets/images/heroicons/micro/rocket-launch.svg

<svg width="16" height="16" viewBox="0 0 16 16" fill="none" xmlns="http://www.w3.org/2000/svg">
<path fill-rule="evenodd" clip-rule="evenodd" d="M6.33307 4.47774C5.91556 4.33019 5.46663 4.25 5 4.25C2.79086 4.25 1 6.04086 1 8.25C1 8.66421 1.33579 9 1.75 9H5.0716C5.64388 9.70938 6.29062 10.3561 7 10.9284V14.25C7 14.6642 7.33579 15 7.75 15C9.95914 15 11.75 13.2091 11.75 11C11.75 10.5325 11.6698 10.0837 11.5224 9.66665C13.6597 7.70226 15 4.88307 15 1.75C15 1.33579 14.6642 1 14.25 1C11.1172 1 8.29699 2.34088 6.33307 4.47774ZM12 5.5C12 6.32843 11.3284 7 10.5 7C9.67157 7 9 6.32843 9 5.5C9 4.67157 9.67157 4 10.5 4C11.3284 4 12 4.67157 12 5.5Z" fill="black"/>
<path d="M3.90236 10.6821C4.10255 10.3195 3.97086 9.86323 3.60823 9.66305C3.24561 9.46286 2.78936 9.59455 2.58917 9.95718C2.21351 10.6377 2 11.42 2 12.25C2 12.6158 2.0415 12.9729 2.12036 13.3165C2.18467 13.5966 2.40341 13.8153 2.68354 13.8796C3.02706 13.9585 3.38415 14 3.75 14C4.57997 14 5.36232 13.7865 6.04282 13.4108C6.40545 13.2106 6.53714 12.7544 6.33695 12.3918C6.13677 12.0291 5.68052 11.8975 5.31789 12.0976C4.85371 12.3539 4.32004 12.5 3.75 12.5C3.66878 12.5 3.58834 12.497 3.50878 12.4912C3.50296 12.4117 3.5 12.3312 3.5 12.25C3.5 11.68 3.64612 11.1463 3.90236 10.6821Z" fill="black"/>
</svg>

<svg xmlns="http://www.w3.org/2000/svg" viewBox="0 0 16 16" fill="currentColor" aria-hidden="true" data-slot="icon">
  <path fill-rule="evenodd" d="M6.333 4.478A4 4 0 0 0 1 8.25c0 .414.336.75.75.75h3.322c.572.71 1.219 1.356 1.928 1.928v3.322c0 .414.336.75.75.75a4 4 0 0 0 3.772-5.333A10.721 10.721 0 0 0 15 1.75a.75.75 0 0 0-.75-.75c-3.133 0-5.953 1.34-7.917 3.478ZM12 5.5a1.5 1.5 0 1 1-3 0 1.5 1.5 0 0 1 3 0Z" clip-rule="evenodd"/>
  <path d="M3.902 10.682a.75.75 0 1 0-1.313-.725 4.764 4.764 0 0 0-.469 3.36.75.75 0 0 0 .564.563 4.76 4.76 0 0 0 3.359-.47.75.75 0 1 0-.725-1.312 3.231 3.231 0 0 1-1.81.393 3.232 3.232 0 0 1 .394-1.81Z"/>
</svg>
